Adwaita++-Light/panel/16/qtox-invisible.svg

<svg height="16" width="16" xmlns="http://www.w3.org/2000/svg">
  <path d="m7.5 1c-2.2089 0-3.5 1.7911-3.5 4v1h-1c-.5523-.0001-1.0001.4477-1 1v7c-.0001.552.4477 1 1 1h9c.552 0 1-.448 1-1v-7c0-.5523-.448-1.0001-1-1h-1v-1c0-2.2089-1.291-4-3.5-4zm0 2.0371094c.82875 0 1.5.671625 1.5 1.5 0 .353625-.0772344.6312531-.1777344.8300781-.09975.198825-.3187656.4652469-.5722656.6699219-.2475.200325-.75.451172-.75.4511718 0 0 .2265625-.2740062.3203125-.4882812-.10575.023475-.2115625.0371094-.3203125.0371094-.8283.00075-1.5-.671625-1.5-1.5s.6711-1.5 1.5-1.5zm0 3.9628906c1.932875 0 3.5 1.567125 3.5 3.5s-1.567125 3.5-3.5 3.5c-1.9329625 0-3.4999125-1.567125-3.5-3.5.0000875-1.932875 1.5670375-3.5 3.5-3.5zm-.5 1.0507812a2.5 2.5 0 0 0 -2 2.4492188 2.5 2.5 0 0 0 2 2.445312zm1 .0039063v4.8945315a2.5 2.5 0 0 0 2-2.449219 2.5 2.5 0 0 0 -2-2.4453125z" fill="#444"/>
</svg>

<svg xmlns="http://www.w3.org/2000/svg" width="16" height="16" version="1.1">
 <defs>
  <style id="current-color-scheme" type="text/css">
   .ColorScheme-Text { color:#444444; } .ColorScheme-Highlight { color:#4285f4; }
  </style>
 </defs>
 <path style="fill:currentColor" class="ColorScheme-Text" d="M 7.5 1 C 5.2911 1 4 2.7911 4 5 L 4 6 L 3 6 C 2.4477 5.9999 1.9999 6.4477 2 7 L 2 14 C 1.9999 14.552 2.4477 15 3 15 L 12 15 C 12.552 15 13 14.552 13 14 L 13 7 C 13 6.4477 12.552 5.9999 12 6 L 11 6 L 11 5 C 11 2.7911 9.709 1 7.5 1 z M 7.5 3.0371094 C 8.32875 3.0371094 9 3.7087344 9 4.5371094 C 9 4.8907344 8.9227656 5.1683625 8.8222656 5.3671875 C 8.7225156 5.5660125 8.5035 5.8324344 8.25 6.0371094 C 8.0025 6.2374344 7.5 6.4882814 7.5 6.4882812 C 7.5 6.4882812 7.7265625 6.214275 7.8203125 6 C 7.7145625 6.023475 7.60875 6.0371094 7.5 6.0371094 C 6.6717 6.0378594 6 5.3654844 6 4.5371094 C 6 3.7087344 6.6711 3.0371094 7.5 3.0371094 z M 7.5 7 C 9.432875 7 11 8.567125 11 10.5 C 11 12.432875 9.432875 14 7.5 14 C 5.5670375 14 4.0000875 12.432875 4 10.5 C 4.0000875 8.567125 5.5670375 7 7.5 7 z M 7 8.0507812 A 2.5 2.5 0 0 0 5 10.5 A 2.5 2.5 0 0 0 7 12.945312 L 7 8.0507812 z M 8 8.0546875 L 8 12.949219 A 2.5 2.5 0 0 0 10 10.5 A 2.5 2.5 0 0 0 8 8.0546875 z"/>
</svg>
